icons/op-two-factor-authentification-24.svg

<svg width="24" height="24" viewBox="0 0 24 24" fill="none" xmlns="http://www.w3.org/2000/svg">
<path d="M5.32562 7.0037C5.71599 6.98244 6.10589 7.05299 6.46325 7.20957C6.8206 7.36614 7.13519 7.60425 7.38111 7.90431C7.62704 8.20436 7.79728 8.55778 7.87782 8.93549C7.95836 9.31319 7.94689 9.70437 7.84437 10.0768C7.74609 10.4339 7.56682 10.764 7.32038 11.0423L5.65902 13.2449H7.04935C7.54027 13.2449 7.93824 13.6378 7.93824 14.1224C7.93824 14.6071 7.54027 15 7.04935 15H3.88887C3.55274 15 3.24536 14.8128 3.09452 14.5163C2.94367 14.2197 2.97518 13.8645 3.17593 13.5983L5.91765 9.96333C5.93501 9.94032 5.9535 9.91815 5.97306 9.89693C6.04672 9.81698 6.10011 9.72091 6.12881 9.61662C6.15752 9.51233 6.16073 9.40279 6.13818 9.29704C6.11562 9.19128 6.06796 9.09232 5.9991 9.00831C5.93024 8.92429 5.84215 8.85762 5.7421 8.81378C5.64204 8.76994 5.53286 8.75018 5.42356 8.75614C5.31425 8.76209 5.20795 8.79359 5.11338 8.84803C5.01881 8.90247 4.93869 8.9783 4.87962 9.06929C4.82054 9.16027 4.78419 9.26381 4.77356 9.37137C4.7259 9.85374 4.29117 10.2066 3.80257 10.1596C3.31397 10.1125 2.95652 9.68334 3.00419 9.20097C3.04215 8.81681 3.17196 8.44705 3.38296 8.1221C3.59396 7.79716 3.8801 7.52632 4.21783 7.33188C4.55557 7.13745 4.93524 7.02497 5.32562 7.0037Z" fill="black"/>
<path d="M8.53084 7.88209C8.53084 7.39743 8.9288 7.00454 9.41972 7.00454H12.5802C13.0711 7.00454 13.4691 7.39743 13.4691 7.88209C13.4691 8.36675 13.0711 8.75964 12.5802 8.75964H10.3086V10.1247H11.7901C12.281 10.1247 12.679 10.5176 12.679 11.0023C12.679 11.4869 12.281 11.8798 11.7901 11.8798H10.3086V14.1224C10.3086 14.6071 9.91064 15 9.41972 15C8.9288 15 8.53084 14.6071 8.53084 14.1224V7.88209Z" fill="black"/>
<path fill-rule="evenodd" clip-rule="evenodd" d="M17.2222 12.6599V14.1224C17.2222 14.6071 17.6201 15 18.111 15C18.602 15 18.9999 14.6071 18.9999 14.1224V9.44218C18.9999 8.79568 18.7398 8.17565 18.2767 7.71851C17.8137 7.26136 17.1857 7.00454 16.5308 7.00454C15.8759 7.00454 15.2479 7.26136 14.7849 7.71851C14.3218 8.17565 14.0617 8.79568 14.0617 9.44218V14.1224C14.0617 14.6071 14.4596 15 14.9506 15C15.4415 15 15.8394 14.6071 15.8394 14.1224V12.6599H17.2222ZM16.5308 8.75964C16.3474 8.75964 16.1716 8.83155 16.0419 8.95955C15.9123 9.08755 15.8394 9.26116 15.8394 9.44218V10.9048H17.2222V9.44218C17.2222 9.26116 17.1493 9.08755 17.0197 8.95955C16.89 8.83155 16.7142 8.75964 16.5308 8.75964Z" fill="black"/>
</svg>

<svg xmlns="http://www.w3.org/2000/svg" width="24" height="24" viewBox="0 0 24 24"><path d="M5.326 7.004a2.48 2.48 0 0 1 2.055.9 2.411 2.411 0 0 1-.061 3.138l-1.661 2.203h1.39c.491 0 .889.393.889.877a.883.883 0 0 1-.889.878h-3.16a.888.888 0 0 1-.794-.484.868.868 0 0 1 .081-.918l2.742-3.635a.874.874 0 0 1 .055-.066.681.681 0 0 0 .165-.6.692.692 0 0 0-.714-.541.685.685 0 0 0-.65.615.887.887 0 0 1-.971.789.882.882 0 0 1-.799-.959 2.42 2.42 0 0 1 .379-1.079 2.481 2.481 0 0 1 1.943-1.118Zm3.205.878c0-.485.398-.877.889-.877h3.16c.491 0 .889.392.889.877a.883.883 0 0 1-.889.878h-2.271v1.365h1.481c.491 0 .889.393.889.877a.883.883 0 0 1-.889.878h-1.481v2.242A.883.883 0 0 1 9.42 15a.883.883 0 0 1-.889-.878v-6.24Zm8.691 4.778h-1.383v1.462a.883.883 0 0 1-.888.878.883.883 0 0 1-.889-.878v-4.68c0-.646.26-1.266.723-1.723a2.482 2.482 0 0 1 1.746-.714c.655 0 1.283.256 1.746.714.463.457.723 1.077.723 1.723v4.68a.883.883 0 0 1-.889.878.883.883 0 0 1-.889-.878Zm-.691-3.9a.696.696 0 0 0-.489.2.676.676 0 0 0-.203.482v1.463h1.383V9.442a.679.679 0 0 0-.202-.482.698.698 0 0 0-.489-.2Z"/></svg>
